X: 1381
T: The Maple Tree
M:C|
L:1/8
N:"collected by J. O'Neill"
B:O'Neill's 1381
Z:"Transcribed by Bob Safranek, rjs@gsp.org"
K:A
(af) | e2 (cB) ABAF | EFAc    dcBA  | (TBA)Bc (dc)Bc | A(agf) eagf |
       e2 (cB) ABAF | EFAc    dcBA  | B(dcB)  Aaec   | BABc   A2 ||
(ed) | cAce    aece | (dc)Bc (df)ed | cAce    aece   | (Bb)ba (gf)ed |
       cAce    aece | (dc)Bc (df)ed | c2 (Ac) dBGB   | Aaec   A2 |]


